im/upload.svg

<svg version="1.1" xmlns="http://www.w3.org/2000/svg" viewBox="0 0 16 16" height="1em" width="1em">
  <path fill="#000000" d="M7 9h2v-4h3l-4-4-4 4h3zM10 6.75v1.542l4.579 1.708-6.579 2.453-6.579-2.453 4.579-1.708v-1.542l-6 2.25v4l8 3 8-3v-4z"/>
</svg>

<svg xmlns="http://www.w3.org/2000/svg" viewBox="0 0 16 16" height="1em" width="1em">
  <path d="M7 9h2V5h3L8 1 4 5h3zm3-2.25v1.542L14.579 10 8 12.453 1.421 10 6 8.292V6.75L0 9v4l8 3 8-3V9z"/>
</svg>
